assets/svg/goincognito.svg

<svg xmlns="http://www.w3.org/2000/svg" width="200" height="230.488" xmlns:v="https://vecta.io/nano"><g fill="#fefefe"><path d="M97.365 220.088a89.016 89.013 0 0 1-46.294-14.483 90.14 90.137 0 0 1-12.627-9.95l-3.965-3.985a90.98 90.977 0 0 1-8.686-10.882c-.532-.772-.664-.996-.6-.996.012 0 .456-.16.988-.356 11.723-4.281 27.602-7.497 45.238-9.154a248.295 248.287 0 0 1 7.954-.628c.008.008 4.653 8.042 10.314 17.851l10.314 17.835c.012 0 4.653-8.026 10.314-17.839a3110.772 3110.679 0 0 1 10.346-17.855c.104-.04 4.429.284 7.426.56 17.988 1.636 33.803 4.793 45.954 9.178l.856.32c.028.024-.088.208-.752 1.184a90.764 90.761 0 0 1-8.622 10.782 89.412 89.409 0 0 1-47.883 26.721 91.168 91.165 0 0 1-13.555 1.648c-.736.04-6.041.08-6.721.048zm38.484-65.652c-5.629-.288-11.226-2.332-16.292-5.949-4.141-2.961-7.842-6.973-10.714-11.63-5.153-8.35-7.602-18.556-6.83-28.445.924-11.75 6.417-22.016 14.791-27.645a26.938 26.937 0 0 1 12.619-4.529c.852-.088 3.281-.12 4.209-.06 6.405.416 12.615 3.005 18.08 7.545a40.289 40.288 0 0 1 4.941 4.921 44.93 44.929 0 0 1 7.594 13.086c2.901 7.741 3.769 16.267 2.465 24.165-1.184 7.173-4.125 13.683-8.438 18.68a28.658 28.657 0 0 1-11.703 8.234 27.126 27.125 0 0 1-10.722 1.624zm-21.133-33.246a6.365 6.365 0 0 0 5.481-8.594 6.569 6.569 0 0 0-3.177-3.461 6.349 6.349 0 0 0-6.509.6 8.12 8.12 0 0 0-1.276 1.24 6.341 6.341 0 0 0-.692 6.641 6.721 6.721 0 0 0 2.329 2.609 6.57 6.57 0 0 0 2.865.96c.212.016.408.032.432.04l.548-.04zM61.45 154.007a27.07 27.069 0 0 1-9.27-2.136 34.456 34.455 0 0 1-3.241-1.652 30.059 30.058 0 0 1-8.61-7.833c-3.993-5.321-6.541-11.982-7.35-19.204-.32-2.861-.36-6.033-.12-8.986.784-9.45 4.401-18.6 10.106-25.541a42.605 42.604 0 0 1 5.661-5.661c4.649-3.769 10.062-6.237 15.371-7.001a28.07 28.069 0 0 1 7.014-.14c7.154.792 13.567 4.333 18.468 10.202 4.701 5.621 7.706 13.211 8.45 21.328.148 1.648.176 2.276.176 4.253s-.024 2.588-.176 4.261c-.788 8.734-3.937 17.055-9.018 23.833a39.577 39.576 0 0 1-7.762 7.817c-3.593 2.701-7.51 4.613-11.503 5.617a27.314 27.313 0 0 1-4.709.784c-.904.072-2.653.104-3.489.06zm25.538-32.698a6.373 6.373 0 0 0 4.961-7.569 6.373 6.373 0 0 0-6.189-5.013 6.377 6.377 0 0 0-5.705 3.533 6.333 6.333 0 0 0 .92 7.001 6.457 6.457 0 0 0 4.065 2.136c.076.012.46.012.86.004a5.361 5.361 0 0 0 1.088-.092z"/><g stroke="#0f0e0d"><ellipse cx="114.617" cy="115.15" rx="7.959" ry="8.496" stroke-width="3.9" paint-order="stroke fill markers"/><ellipse cy="115.683" cx="95.885" rx="8.276" ry="8.378" transform="matrix(1 0 -.091024 .995849 0 0)" stroke-width="3.908" paint-order="stroke fill markers"/></g></g><path fill="#fab314" d="M97.617 230.482a101.942 101.939 0 0 1-8.986-.624 99.906 99.903 0 0 1-10.51-1.752l-2.224-.52a106.395 106.392 0 0 1-9.378-2.833 99.422 99.419 0 0 1-32.351-18.964 122.615 122.611 0 0 1-4.309-3.989l-.3-.304 3.657-3.665 3.657-3.661.74.712a90.772 90.769 0 0 0 6.85 5.993 89.18 89.177 0 0 0 55.54 19.252l7.422-.288c22.841-1.868 43.974-12.386 59.389-29.558a90.748 90.745 0 0 0 9.23-12.266 89.06 89.057 0 0 0 13.451-42.02c.16-2.625.208-6.709.104-9.006a92.396 92.394 0 0 0-1.196-11.562l-.136-.784 4.345-4.345a244.526 244.518 0 0 1 4.373-4.321 100.454 100.451 0 0 1 2.865 18.564c.128 2.216.152 3.149.152 5.945s-.024 3.729-.152 5.937a99.598 99.595 0 0 1-22.365 57.331 103.303 103.3 0 0 1-10.81 11.302 99.654 99.651 0 0 1-60.753 25.273c-1.992.12-2.805.14-5.333.152h-2.969zm-7.994-43.1l-12.735-22.064-2.389-4.141 12.751-.012h25.502l12.751.012-2.389 4.141-23.113 39.988z"/><path fill="#279ad5" d="M188.249 114.544l-.26-1.324a89.232 89.229 0 0 0-17.416-38.031 92.156 92.154 0 0 0-6.521-7.441l-.632-.656 3.665-3.665 3.661-3.661 1.04 1.068a99.434 99.431 0 0 1 25.074 44.608l.12.484-4.353 4.357-4.377 4.261z"/><path fill="#7cbb41" d="M162.808 66.506a94.985 94.982 0 0 0-4.473-4.097 89.492 89.489 0 0 0-22.545-14.147 88.796 88.793 0 0 0-18.536-5.761l-1.32-.268c-.056-.02.88-.976 4.281-4.373l4.349-4.353.484.12a99.718 99.715 0 0 1 28.006 12.03 100.158 100.155 0 0 1 16.804 13.243l.88.86-3.649 3.657-3.673 3.653c-.012 0-.284-.256-.608-.568z"/><path fill="#ee5128" d="M28.578 200.508a99.454 99.451 0 0 1-20.06-29.51A100.042 100.039 0 0 1 .156 136.58L0 130.487l.16-6.093A100.286 100.283 0 0 1 6.345 95.28a99.518 99.515 0 0 1 6.974-14.771 100.694 100.691 0 0 1 21.605-25.997A99.422 99.419 0 0 1 61.45 38.157a100.202 100.199 0 0 1 32.463-7.513l6.089-.156 6.093.16c4.529.276 8.962.844 13.383 1.72 1.908.376 4.949 1.068 5.029 1.144l-4.317 4.369-4.345 4.345-1.052-.176a90.408 90.405 0 0 0-32.199.476 89.156 89.153 0 0 0-31.431 12.762 90.28 90.277 0 0 0-26.358 26.361 89.26 89.257 0 0 0-9.926 20.628 89.804 89.801 0 0 0-4.309 34.579 89.248 89.245 0 0 0 13.119 40.712 88.852 88.849 0 0 0 12.147 15.539l1.032 1.064-3.645 3.653-3.669 3.653a30.727 30.726 0 0 1-.976-.968z"/><path fill="#131313" d="M85.099 121.381c-1.428-.16-2.717-.76-3.725-1.732a6.221 6.221 0 0 1-1.948-4.829 6.141 6.141 0 0 1 1.84-4.201 5.829 5.829 0 0 1 1.576-1.164 6.337 6.337 0 0 1 9.122 4.401c.068.336.08.52.08 1.216.004.708-.008.88-.084 1.232a6.317 6.317 0 0 1-1.64 3.137 6.205 6.205 0 0 1-3.545 1.88 7.42 7.42 0 0 1-1.676.06zm28.306-.252a6.349 6.349 0 0 1-5.377-5.157c-.104-.544-.104-1.68 0-2.228a6.781 6.781 0 0 1 1.068-2.56c.144-.2.456-.56.692-.8a6.349 6.349 0 0 1 3.241-1.744c.536-.12 1.844-.128 2.389-.016a6.369 6.369 0 0 1 5.137 5.533 7.24 7.24 0 0 1-.08 1.932 6.357 6.357 0 0 1-7.07 5.041z"/><path fill="#100f0e" d="M24.913 179.448a89.22 89.217 0 0 1-13.579-35.739 91.012 91.009 0 0 1-.724-19.864 89.1 89.097 0 0 1 11.435-37.623A90.076 90.073 0 0 1 42.549 61.69a89.336 89.333 0 0 1 62.254-20.712 89.196 89.193 0 0 1 39.461 11.554 90.02 90.017 0 0 1 24.533 20.504 89.34 89.337 0 0 1 20.717 62.252 89.22 89.217 0 0 1-14.515 44.288l-.08.096-.852-.312c-6.537-2.392-15.019-4.601-23.961-6.229a256.496 256.489 0 0 0-28.242-3.461l-1.176-.092 2.433-4.221 2.437-4.229-51.107.012 2.441 4.241 2.437 4.241-1.556.116a280.12 280.12 0 0 0-11.19 1.024c-16.164 1.82-30.235 4.873-41.113 8.922l-.32.12zm113.237-24.973a26.566 26.565 0 0 0 9.094-1.896c7.758-3.081 14.031-9.858 17.396-18.8 1.52-4.041 2.401-8.366 2.641-12.942.052-.984.052-3.593 0-4.573a47.747 47.745 0 0 0-6.629-22.072 41.733 41.732 0 0 0-8.87-10.454c-5.105-4.265-11.042-6.881-17.004-7.497-1.58-.16-3.813-.18-5.257-.04-6.545.62-12.363 3.401-17.132 8.182-4.777 4.793-8.138 11.302-9.646 18.684-1.368 6.681-1.172 13.763.58 20.736 2.629 10.47 8.782 19.648 16.88 25.173 5.089 3.469 10.786 5.389 16.372 5.513l.488.02zm-72.844-.52c5.689-.588 10.958-2.701 15.823-6.361 9.49-7.129 15.771-19.06 16.86-32.014.16-1.92.208-4.813.104-6.465-.376-6.069-1.78-11.49-4.241-16.403-2.264-4.513-5.401-8.406-9.07-11.262a27.086 27.085 0 0 0-15.043-5.737 37.08 37.08 0 0 0-3.401 0c-6.858.44-13.487 3.389-19.228 8.546-.84.752-2.481 2.42-3.233 3.273-5.873 6.713-9.662 15.335-10.842 24.693a41.089 41.088 0 0 0-.34 5.273c-.028 2.384.04 3.853.28 5.921.76 6.461 2.913 12.474 6.261 17.479 3.541 5.289 8.27 9.19 13.743 11.334a29.206 29.206 0 0 0 4.173 1.248 31.927 31.926 0 0 0 3.721.524c.752.056 3.721.024 4.433-.052z"/><g fill="#0f0e0d"><path d="M158.725 63.084c-5.62-.347-111.336-8.909-114.094-9.087-.869-.104-.961-.059-.747-.626C52.428 35.994 59.27 18.079 67.042 2.566c.696-1.463.968-.88 2.285-.428 2.1.951 22.583 9.251 24.819 10.139.357.131.538.238 1.655.243 15.559-.544 43.695-3.849 50.536-4.305 1.612.1 1.757.574 1.968 1.485l12.167 52.696c.259.951-.659.776-1.747.688z" stroke="#fefefe" stroke-width="3.269"/><path d="M22.851 85.556c-3.699-.76-2.751-2.311-.985-2.974C81.011 60.464 135.333 65.279 180.14 95.215c2.694 2.152 2.838 3.412.699 3.387L22.851 85.556z" stroke="#fff" stroke-width="3.9"/></g><path d="M96.447 112.828h7.086v.644h-7.086z" fill="#fefefe" stroke="#0f0e0d" stroke-width="3.9" paint-order="stroke fill markers"/></svg>

<?xml version="1.0" encoding="UTF-8" standalone="no"?>
<!DOCTYPE svg PUBLIC "-//W3C//DTD SVG 1.1//EN" "http://www.w3.org/Graphics/SVG/1.1/DTD/svg11.dtd">
<svg width="100%" height="100%" viewBox="0 0 400 461" version="1.1" xmlns="http://www.w3.org/2000/svg" xmlns:xlink="http://www.w3.org/1999/xlink" xml:space="preserve" xmlns:serif="http://www.serif.com/" style="fill-rule:evenodd;clip-rule:evenodd;">
    <g transform="matrix(2,0,0,2,0,0)">
        <g>
            <path d="M97.365,220.088C80.892,219.639 64.863,214.624 51.071,205.605C46.574,202.671 42.348,199.341 38.444,195.655L34.479,191.67C31.31,188.27 28.406,184.632 25.793,180.788C25.261,180.016 25.129,179.792 25.193,179.792C25.205,179.792 25.649,179.632 26.181,179.436C37.904,175.155 53.783,171.939 71.419,170.282C74.067,170.03 76.718,169.821 79.373,169.654C79.381,169.662 84.026,177.696 89.687,187.505L100.001,205.34C100.013,205.34 104.654,197.314 110.315,187.501C113.744,181.538 117.193,175.586 120.661,169.646C120.765,169.606 125.09,169.93 128.087,170.206C146.075,171.842 161.89,174.999 174.041,179.384L174.897,179.704C174.925,179.728 174.809,179.912 174.145,180.888C171.549,184.696 168.667,188.3 165.523,191.67C152.757,205.37 136.003,214.719 117.64,218.391C113.169,219.278 108.638,219.829 104.085,220.039C103.349,220.079 98.044,220.119 97.364,220.087L97.365,220.088ZM135.849,154.436C130.22,154.148 124.623,152.104 119.557,148.487C115.416,145.526 111.715,141.514 108.843,136.857C103.69,128.507 101.241,118.301 102.013,108.412C102.937,96.662 108.43,86.396 116.804,80.767C120.561,78.218 124.902,76.66 129.423,76.238C130.275,76.15 132.704,76.118 133.632,76.178C140.037,76.594 146.247,79.183 151.712,83.723C153.498,85.217 155.151,86.864 156.653,88.644C159.906,92.545 162.474,96.97 164.247,101.73C167.148,109.471 168.016,117.997 166.712,125.895C165.528,133.068 162.587,139.578 158.274,144.575C155.132,148.265 151.105,151.098 146.571,152.809C143.143,154.066 139.496,154.619 135.849,154.433L135.849,154.436ZM114.716,121.19C118.02,120.943 120.607,118.156 120.607,114.843C120.607,114.075 120.468,113.314 120.197,112.596C119.601,111.091 118.469,109.857 117.02,109.135C114.909,108.118 112.4,108.35 110.511,109.735C110.042,110.1 109.614,110.516 109.235,110.975C107.765,112.875 107.497,115.454 108.543,117.616C109.075,118.676 109.879,119.576 110.872,120.225C111.739,120.763 112.72,121.092 113.737,121.185C113.949,121.201 114.145,121.217 114.169,121.225L114.717,121.185L114.716,121.19ZM61.45,154.007C58.258,153.848 55.12,153.125 52.18,151.871C51.071,151.378 49.989,150.826 48.939,150.219C45.586,148.194 42.661,145.533 40.329,142.386C36.336,137.065 33.788,130.404 32.979,123.182C32.659,120.321 32.619,117.149 32.859,114.196C33.643,104.746 37.26,95.596 42.965,88.655C44.67,86.595 46.565,84.699 48.626,82.994C53.275,79.225 58.688,76.757 63.997,75.993C66.32,75.653 68.676,75.606 71.011,75.853C78.165,76.645 84.578,80.186 89.479,86.055C94.18,91.676 97.185,99.266 97.929,107.383C98.077,109.031 98.105,109.659 98.105,111.636C98.105,113.613 98.081,114.224 97.929,115.897C97.141,124.631 93.992,132.952 88.911,139.73C86.701,142.685 84.088,145.316 81.149,147.547C77.556,150.248 73.639,152.16 69.646,153.164C68.102,153.562 66.527,153.825 64.937,153.948C64.033,154.02 62.284,154.052 61.448,154.008L61.45,154.007ZM86.988,121.309C89.945,120.706 92.088,118.082 92.088,115.064C92.088,114.619 92.042,114.175 91.949,113.74C91.315,110.837 88.731,108.744 85.76,108.727C83.346,108.728 81.132,110.1 80.055,112.26C78.914,114.559 79.279,117.335 80.975,119.261C82.022,120.447 83.469,121.207 85.04,121.397C85.116,121.409 85.5,121.409 85.9,121.401C86.265,121.407 86.629,121.377 86.988,121.309Z" style="fill:rgb(254,254,254);fill-rule:nonzero;"/>
            <g>
                <ellipse cx="114.617" cy="115.15" rx="7.959" ry="8.496" style="fill:rgb(254,254,254);stroke:rgb(15,14,13);stroke-width:3.9px;"/>
                <g transform="matrix(1,0,-0.091024,0.995849,0,0)">
                    <ellipse cx="95.885" cy="115.683" rx="8.276" ry="8.378" style="fill:rgb(254,254,254);stroke:rgb(15,14,13);stroke-width:3.91px;"/>
                </g>
            </g>
        </g>
        <path d="M97.617,230.482C94.614,230.406 91.616,230.198 88.631,229.858C85.099,229.461 81.591,228.877 78.121,228.106L75.897,227.586C72.729,226.786 69.6,225.841 66.519,224.753C54.63,220.541 43.651,214.105 34.168,205.789C32.7,204.494 31.263,203.164 29.859,201.8L29.559,201.496L33.216,197.831L36.873,194.17L37.613,194.882C39.795,196.993 42.081,198.993 44.463,200.875C60.265,213.382 79.85,220.171 100.003,220.127L107.425,219.839C130.266,217.971 151.399,207.453 166.814,190.281C170.232,186.46 173.319,182.357 176.044,178.015C183.981,165.359 188.607,150.907 189.495,135.995C189.655,133.37 189.703,129.286 189.599,126.989C189.443,123.114 189.044,119.252 188.403,115.427L188.267,114.643L192.612,110.298C194.052,108.839 195.509,107.399 196.985,105.977C198.518,112.062 199.477,118.277 199.85,124.541C199.978,126.757 200.002,127.69 200.002,130.486C200.002,133.282 199.978,134.215 199.85,136.423C198.634,157.412 190.803,177.486 177.485,193.754C174.172,197.789 170.559,201.567 166.675,205.056C149.873,220.113 128.446,229.026 105.922,230.329C103.93,230.449 103.117,230.469 100.589,230.481L97.62,230.481L97.617,230.482ZM89.623,187.382L76.888,165.318L74.499,161.177L87.25,161.165L112.752,161.165L125.503,161.177L123.114,165.318L100.001,205.306L89.623,187.382Z" style="fill:rgb(250,179,20);fill-rule:nonzero;"/>
        <path d="M188.249,114.544L187.989,113.22C185.279,99.343 179.309,86.306 170.573,75.189C168.534,72.594 166.357,70.11 164.052,67.748L163.42,67.092L170.746,59.766L171.786,60.834C183.892,73.26 192.537,88.641 196.86,105.442L196.98,105.926L192.627,110.283L188.25,114.544L188.249,114.544Z" style="fill:rgb(39,154,213);fill-rule:nonzero;"/>
        <path d="M162.808,66.506C161.361,65.093 159.869,63.727 158.335,62.409C151.567,56.596 143.968,51.828 135.79,48.262C129.84,45.67 123.625,43.738 117.254,42.501L115.934,42.233C115.878,42.213 116.814,41.257 120.215,37.86L124.564,33.507L125.048,33.627C134.945,36.178 144.39,40.236 153.054,45.657C159.112,49.459 164.746,53.898 169.858,58.9L170.738,59.76L167.089,63.417L163.416,67.07C163.404,67.07 163.132,66.814 162.808,66.502L162.808,66.506Z" style="fill:rgb(124,187,65);fill-rule:nonzero;"/>
        <path d="M28.578,200.508C20.167,191.961 13.371,181.963 8.518,170.998C3.706,160.114 0.874,148.459 0.156,136.58L0,130.487L0.16,124.394C0.762,114.436 2.847,104.623 6.345,95.28C8.261,90.174 10.593,85.233 13.319,80.509C19.004,70.688 26.309,61.898 34.924,54.512C42.851,47.7 51.803,42.18 61.45,38.157C71.776,33.859 82.749,31.319 93.913,30.644L100.002,30.488L106.095,30.648C110.624,30.924 115.057,31.492 119.478,32.368C121.386,32.744 124.427,33.436 124.507,33.512L120.19,37.881L115.845,42.226L114.793,42.05C104.118,40.281 93.212,40.442 82.594,42.526C71.397,44.729 60.726,49.062 51.163,55.288C40.639,62.145 31.661,71.124 24.805,81.649C20.625,88.07 17.289,95.004 14.879,102.277C11.199,113.411 9.735,125.159 10.57,136.856C11.578,151.289 16.081,165.262 23.689,177.568C27.149,183.182 31.223,188.394 35.836,193.107L36.868,194.171L33.223,197.824L29.554,201.477C29.221,201.162 28.896,200.839 28.578,200.509L28.578,200.508Z" style="fill:rgb(238,81,40);fill-rule:nonzero;"/>
        <path d="M85.099,121.381C83.671,121.221 82.382,120.621 81.374,119.649C80.051,118.402 79.338,116.636 79.426,114.82C79.474,113.235 80.134,111.729 81.266,110.619C81.722,110.145 82.255,109.751 82.842,109.455C83.74,108.991 84.737,108.75 85.748,108.75C88.761,108.75 91.379,110.9 91.964,113.856C92.032,114.192 92.044,114.376 92.044,115.072C92.048,115.78 92.036,115.952 91.96,116.304C91.723,117.484 91.154,118.573 90.32,119.441C89.379,120.443 88.132,121.104 86.775,121.321C86.22,121.404 85.658,121.424 85.099,121.381ZM113.405,121.129C110.694,120.754 108.516,118.665 108.028,115.972C107.924,115.428 107.924,114.292 108.028,113.744C108.204,112.826 108.567,111.955 109.096,111.184C109.24,110.984 109.552,110.624 109.788,110.384C110.672,109.496 111.8,108.889 113.029,108.64C113.565,108.52 114.873,108.512 115.418,108.624C118.149,109.144 120.239,111.395 120.555,114.157C120.615,114.802 120.588,115.451 120.475,116.089C119.815,119.35 116.702,121.569 113.405,121.13L113.405,121.129Z" style="fill:rgb(19,19,19);fill-rule:nonzero;"/>
        <path d="M24.913,179.448C17.858,168.657 13.225,156.463 11.334,143.709C10.368,137.134 10.125,130.473 10.61,123.845C11.572,110.609 15.479,97.754 22.045,86.222C27.362,76.888 34.306,68.579 42.549,61.69C59.917,47.145 82.183,39.737 104.803,40.978C118.676,41.704 132.19,45.66 144.264,52.532C153.6,57.848 161.909,64.792 168.797,73.036C183.344,90.403 190.753,112.668 189.514,135.288C188.685,151.075 183.675,166.361 174.999,179.576L174.919,179.672L174.067,179.36C167.53,176.968 159.048,174.759 150.106,173.131C140.763,171.456 131.335,170.3 121.864,169.67L120.688,169.578L123.121,165.357L125.558,161.128L74.451,161.14L76.892,165.381L79.329,169.622L77.773,169.738C74.037,170.004 70.306,170.346 66.583,170.762C50.419,172.582 36.348,175.635 25.47,179.684L25.15,179.804L24.913,179.448ZM138.15,154.475C141.269,154.382 144.348,153.74 147.244,152.579C155.002,149.498 161.275,142.721 164.64,133.779C166.16,129.738 167.041,125.413 167.281,120.837C167.333,119.853 167.333,117.244 167.281,116.264C166.907,108.476 164.631,100.897 160.652,94.192C158.292,90.242 155.295,86.71 151.782,83.738C146.677,79.473 140.74,76.857 134.778,76.241C133.198,76.081 130.965,76.061 129.521,76.201C122.976,76.821 117.158,79.602 112.389,84.383C107.612,89.176 104.251,95.685 102.743,103.067C101.375,109.748 101.571,116.83 103.323,123.803C105.952,134.273 112.105,143.451 120.203,148.976C125.292,152.445 130.989,154.365 136.575,154.489L137.063,154.509L138.15,154.475ZM65.306,153.955C70.995,153.367 76.264,151.254 81.129,147.594C90.619,140.465 96.9,128.534 97.989,115.58C98.149,113.66 98.197,110.767 98.093,109.115C97.717,103.046 96.313,97.625 93.852,92.712C91.588,88.199 88.451,84.306 84.782,81.45C80.466,78.058 75.218,76.056 69.739,75.713C68.606,75.661 67.471,75.661 66.338,75.713C59.48,76.153 52.851,79.102 47.11,84.259C46.27,85.011 44.629,86.679 43.877,87.532C38.004,94.245 34.215,102.867 33.035,112.225C32.809,113.974 32.695,115.735 32.695,117.498C32.667,119.882 32.735,121.351 32.975,123.419C33.735,129.88 35.888,135.893 39.236,140.898C42.777,146.187 47.506,150.088 52.979,152.232C54.337,152.751 55.732,153.168 57.152,153.48C58.381,153.728 59.623,153.903 60.873,154.004C61.625,154.06 64.594,154.028 65.306,153.952L65.306,153.955Z" style="fill:rgb(16,15,14);fill-rule:nonzero;"/>
        <g>
            <path d="M158.725,63.084C153.105,62.737 47.389,54.175 44.631,53.997C43.762,53.893 43.67,53.938 43.884,53.371C52.428,35.994 59.27,18.079 67.042,2.566C67.738,1.103 68.01,1.686 69.327,2.138C71.427,3.089 91.91,11.389 94.146,12.277C94.503,12.408 94.684,12.515 95.801,12.52C111.36,11.976 139.496,8.671 146.337,8.215C147.949,8.315 148.094,8.789 148.305,9.7L160.472,62.396C160.731,63.347 159.813,63.172 158.725,63.084Z" style="fill:rgb(15,14,13);fill-rule:nonzero;stroke:rgb(254,254,254);stroke-width:3.27px;"/>
            <path d="M22.851,85.556C19.152,84.796 20.1,83.245 21.866,82.582C81.011,60.464 135.333,65.279 180.14,95.215C182.834,97.367 182.978,98.627 180.839,98.602L22.851,85.556Z" style="fill:rgb(15,14,13);fill-rule:nonzero;stroke:white;stroke-width:3.9px;"/>
        </g>
        <rect x="96.447" y="112.828" width="7.086" height="0.644" style="fill:rgb(254,254,254);fill-rule:nonzero;stroke:rgb(15,14,13);stroke-width:3.9px;"/>
    </g>
</svg>
